src/assets/main-logo.svg

<svg width="126" height="36" viewBox="0 0 126 36" fill="none" xmlns="http://www.w3.org/2000/svg">
<g clip-path="url(#clip0_814_292543)">
<path d="M23.3582 17.5989C23.3498 17.999 23.4309 18.3959 23.5956 18.7606C23.7356 19.0741 23.9366 19.3566 24.1868 19.5915C24.437 19.8264 24.7315 20.0091 25.0529 20.1287C25.3635 20.2502 25.6939 20.3131 26.0273 20.3143V25.1258C24.1539 25.1397 22.3467 24.4327 20.9785 23.1507C20.1349 23.7401 19.2207 24.2207 18.2573 24.5815C17.211 24.9791 16.128 25.2718 15.024 25.4553C13.8781 25.6487 12.7175 25.7416 11.5554 25.7327C10.4039 25.7295 9.25573 25.6094 8.12846 25.374C7.0474 25.1478 5.99843 24.7884 5.00548 24.3041C4.0562 23.8462 3.18886 23.2345 2.43839 22.4938C1.69383 21.7507 1.10429 20.8666 0.704096 19.893C0.263185 18.799 0.0465175 17.6273 0.0670019 16.4476V15.7281H4.89097V16.3663C4.87677 17.0613 5.08548 17.7426 5.48642 18.3101C5.90695 18.8911 6.44729 19.3748 7.07081 19.7283C7.78614 20.133 8.55818 20.4276 9.361 20.6021C10.2497 20.8046 11.1564 20.9178 12.0676 20.94C12.1904 20.94 12.4382 20.9212 12.8088 20.8795C13.236 20.8315 13.6606 20.7619 14.0809 20.671C14.5947 20.5567 15.1015 20.4126 15.5986 20.2392C16.1071 20.0649 16.5956 19.837 17.056 19.5593C17.475 19.3079 17.8436 18.9804 18.1428 18.5937C18.4293 18.2188 18.5811 17.7581 18.5738 17.286V9.74452H23.3624L23.3582 17.5989ZM11.2348 5.6505L14.0892 2.79323L17.537 6.22821L14.0892 9.66318L11.2348 6.79758L8.34083 9.65693L4.91179 6.22195L8.34083 2.78697L11.2348 5.6505Z" fill="#999999"/>
<path d="M36.1291 20.3143H25.9878V25.1258H36.1291V20.3143Z" fill="#999999"/>
<path d="M38.2236 26.154L41.0967 29.03L43.9699 26.154L47.4197 29.5869L43.9699 33.0406L41.0967 30.1813L38.2236 33.0406L34.7737 29.5869L38.2236 26.154Z" fill="#999999"/>
<path d="M43.5806 17.5989C43.5723 17.9977 43.649 18.3937 43.8054 18.7606C43.9438 19.0801 44.1465 19.3677 44.4009 19.6052C44.6499 19.832 44.9396 20.0096 45.2545 20.1287C45.5651 20.2502 45.8954 20.3131 46.2288 20.3143V25.1258C45.2797 25.1337 44.3383 24.9551 43.4577 24.6002C42.6131 24.2597 41.8372 23.7686 41.1675 23.1507C40.4947 23.7695 39.7151 24.2607 38.8669 24.6002C37.9864 24.9553 37.0449 25.1339 36.0958 25.1258V20.3143C36.4292 20.3131 36.7596 20.2502 37.0702 20.1287C37.3873 20.0078 37.68 19.8305 37.9342 19.6052C38.1944 19.3686 38.4034 19.0812 38.5484 18.7606C38.713 18.3959 38.7941 17.999 38.7857 17.5989V9.74452H43.5889L43.5806 17.5989Z" fill="#999999"/>
<path d="M53.6803 17.5989C53.672 17.9977 53.7487 18.3937 53.9051 18.7606C54.0435 19.0801 54.2462 19.3677 54.5006 19.6052C54.7497 19.832 55.0393 20.0096 55.3542 20.1287C55.6648 20.2502 55.9951 20.3131 56.3286 20.3143V25.1258C55.3795 25.1337 54.438 24.9551 53.5575 24.6002C52.7129 24.2595 51.937 23.7685 51.2673 23.1507C50.5976 23.7686 49.8217 24.2597 48.9771 24.6002C48.0965 24.9551 47.1551 25.1337 46.2059 25.1258V20.3143C46.5394 20.3131 46.8697 20.2502 47.1803 20.1287C47.4971 20.0083 47.7892 19.8309 48.0423 19.6052C48.3067 19.3701 48.5194 19.0825 48.6668 18.7606C48.8308 18.3957 48.9112 17.9988 48.9021 17.5989V9.74452H53.7073L53.6803 17.5989Z" fill="#999999"/>
<path d="M51.2152 26.2353L54.6859 29.6891L51.2152 33.1241L47.7883 29.6891L51.2152 26.2353Z" fill="#999999"/>
<path d="M56.289 20.3143C56.7085 20.3305 57.1283 20.2926 57.5382 20.2017C57.8998 20.1224 58.2396 19.9643 58.5334 19.7387C58.8196 19.5123 59.0456 19.2185 59.1913 18.8836C59.3591 18.4767 59.4393 18.0389 59.4266 17.5989V13.9387C59.4195 12.9422 59.6187 11.9551 60.0116 11.0397C60.7731 9.24556 62.2014 7.81851 63.9944 7.06036C64.9122 6.67358 65.8979 6.47435 66.8936 6.47435C67.8893 6.47435 68.875 6.67358 69.7928 7.06036C70.6795 7.44189 71.4851 7.98982 72.1662 8.67461C72.8469 9.35861 73.3935 10.1644 73.7777 11.0501C74.1769 11.9639 74.3798 12.9516 74.3732 13.9491V17.6719C74.3806 18.6761 74.1777 19.6708 73.7777 20.5917C73.0097 22.3863 71.5844 23.8178 69.7949 24.5919C68.8826 24.9917 67.8966 25.195 66.9009 25.1884C65.9455 25.1879 64.9996 24.9987 64.1173 24.6315C63.2627 24.2856 62.4797 23.7834 61.8084 23.1507C61.0919 23.8653 60.2153 24.398 59.2517 24.7045C58.2875 24.9804 57.2897 25.1208 56.2869 25.1216L56.289 20.3143ZM64.2318 14.0409V17.5989C64.2242 17.9979 64.3016 18.3939 64.4587 18.7606C64.5988 19.0837 64.8044 19.3742 65.0625 19.6136C65.5672 20.0754 66.218 20.3449 66.9009 20.3748C67.231 20.3886 67.561 20.3434 67.8753 20.2413C68.1948 20.1404 68.4893 19.9726 68.7393 19.7491C69.0028 19.5059 69.2096 19.2075 69.3452 18.8753C69.5042 18.469 69.5806 18.0351 69.57 17.5989V14.0409C69.5804 13.6053 69.504 13.1721 69.3452 12.7666C69.2082 12.432 69.0016 12.1306 68.7393 11.8823C68.4915 11.6534 68.1965 11.4819 67.8753 11.3796C67.5612 11.2766 67.2311 11.2314 66.9009 11.2461C66.5659 11.2589 66.2355 11.3294 65.9245 11.4547C65.6053 11.5845 65.313 11.7726 65.0625 12.0095C64.8074 12.2555 64.6024 12.5487 64.4587 12.8729C64.3022 13.2398 64.2249 13.6357 64.2318 14.0346" fill="#999999"/>
<path d="M125.864 1.09629L123.262 0.587452C122.223 0.382277 119.978 0.653106 118.131 2.95107C117.46 3.79023 117.321 3.80254 115.125 3.20343C113.993 2.8797 112.846 2.61332 111.687 2.4053C106.799 1.55588 94.4696 1.64821 89.0294 2.90388C86.6304 3.4558 85.6966 2.73769 84.3976 1.74053C83.3613 0.944456 82.0705 -0.044487 80.0532 -0.044487H76.8066L79.025 2.33759C79.0415 2.35606 80.8002 4.27034 81.2455 6.53958L79.497 13.335C79.1421 14.6758 78.939 16.0523 78.8916 17.4385V18.4726C78.9434 19.859 79.1499 21.2354 79.5073 22.5761C80.4 26.0415 80.911 28.0337 81.2906 29.1786C80.9089 31.5299 79.0517 33.5529 79.0332 33.5714L76.7964 35.9555H80.0511C82.0684 35.9555 83.3572 34.9666 84.3956 34.1705C85.6946 33.1733 86.6304 32.4532 89.0273 33.0072C94.4676 34.2608 106.799 34.3551 111.687 33.5057C112.845 33.2975 113.992 33.0311 115.123 32.7076C117.318 32.1085 117.458 32.1208 118.129 32.9579C119.976 35.2579 122.221 35.5288 123.259 35.3215L125.839 34.8127L123.992 32.9374C123.329 32.2133 122.768 31.4014 122.326 30.5245L122.311 30.502C121.989 30.0044 121.849 29.4106 121.915 28.8216C122.301 27.5392 123.147 24.7817 123.278 24.3529C124.509 20.3991 124.544 15.7027 123.356 11.788L123.151 11.1273C122.492 8.95449 122.082 7.60649 121.768 6.76527C122.229 5.35806 122.986 4.06589 123.988 2.97569L125.864 1.09629Z" fill="#47C0B5"/>
<path d="M109.996 14.1885H103.136V21.0475H109.996V14.1885Z" fill="white"/>
<path d="M100.565 14.1885H93.7042V21.0475H100.565V14.1885Z" fill="white"/>
</g>
<defs>
<clipPath id="clip0_814_292543">
<rect width="126" height="36" fill="white"/>
</clipPath>
</defs>
</svg>

<svg xmlns="http://www.w3.org/2000/svg" width="126" height="36" fill="none"><g clip-path="url(#a)"><path fill="#999" d="M23.358 17.599c-.008.4.073.797.238 1.162a2.59 2.59 0 0 0 1.457 1.368c.31.121.64.184.974.185v4.812a7.3 7.3 0 0 1-5.049-1.975c-.843.59-1.757 1.07-2.72 1.43-1.047.398-2.13.69-3.234.874a20 20 0 0 1-3.469.278 17 17 0 0 1-3.427-.359 13.4 13.4 0 0 1-3.123-1.07 9.6 9.6 0 0 1-2.567-1.81 7.9 7.9 0 0 1-1.734-2.601 8.8 8.8 0 0 1-.637-3.445v-.72h4.824v.638a3.25 3.25 0 0 0 .595 1.944 5 5 0 0 0 1.585 1.418c.715.405 1.487.7 2.29.874.889.203 1.795.316 2.707.338q.184 0 .74-.06.643-.073 1.273-.209.771-.171 1.518-.432a7.6 7.6 0 0 0 1.457-.68 3.9 3.9 0 0 0 1.087-.965 2.1 2.1 0 0 0 .43-1.308V9.745h4.79zM11.235 5.65l2.854-2.858 3.448 3.435-3.448 3.435-2.854-2.865L8.34 9.657 4.91 6.222l3.43-3.435z"/><path fill="#999" d="M36.13 20.314H25.987v4.812h10.141zM38.224 26.154l2.873 2.876 2.873-2.876 3.45 3.433-3.45 3.454-2.873-2.86-2.873 2.86-3.45-3.454z"/><path fill="#999" d="M43.58 17.599c-.008.399.069.795.225 1.162.139.32.342.607.596.844.249.227.539.405.853.524.311.121.641.184.975.185v4.812c-.95.008-1.89-.17-2.771-.526a7.5 7.5 0 0 1-2.29-1.45 7.5 7.5 0 0 1-2.301 1.45 7.2 7.2 0 0 1-2.771.526v-4.812a2.814 2.814 0 0 0 1.838-.71c.26-.235.47-.523.614-.843.165-.365.246-.762.238-1.162V9.745h4.803z"/><path fill="#999" d="M53.68 17.599c-.008.399.069.795.225 1.162.139.32.341.607.596.844.249.227.538.405.853.524.31.121.641.184.975.185v4.812c-.95.008-1.891-.17-2.772-.526a7.5 7.5 0 0 1-2.29-1.45 7.5 7.5 0 0 1-2.29 1.45 7.3 7.3 0 0 1-2.771.526v-4.812c.333 0 .664-.064.974-.185.317-.12.61-.298.862-.524.265-.235.477-.523.625-.844.164-.365.244-.762.235-1.162V9.745h4.805zM51.215 26.235l3.47 3.454-3.47 3.435-3.427-3.435z"/><path fill="#999" d="M56.289 20.314c.42.017.84-.021 1.25-.112a2.5 2.5 0 0 0 .994-.463c.287-.227.513-.52.658-.855.168-.407.248-.845.236-1.285v-3.66a7.2 7.2 0 0 1 .585-2.9 7.5 7.5 0 0 1 3.982-3.979 7.47 7.47 0 0 1 5.799 0c.886.382 1.692.93 2.373 1.615a7.7 7.7 0 0 1 1.612 2.375c.399.914.602 1.902.595 2.9v3.722a7.2 7.2 0 0 1-.595 2.92 7.63 7.63 0 0 1-3.983 4c-.912.4-1.898.603-2.894.596-.956 0-1.901-.19-2.784-.556a7.4 7.4 0 0 1-2.309-1.481 6.34 6.34 0 0 1-2.556 1.553c-.965.276-1.962.417-2.965.418zm7.943-6.273v3.558c-.008.399.07.795.227 1.162.14.323.345.613.603.853a2.9 2.9 0 0 0 1.839.76c.33.015.66-.03.974-.133.32-.1.614-.268.864-.492.264-.243.47-.541.606-.874.16-.406.236-.84.225-1.276V14.04a3.3 3.3 0 0 0-.225-1.274 2.55 2.55 0 0 0-.606-.885 2.3 2.3 0 0 0-.864-.502 2.7 2.7 0 0 0-.974-.134 2.9 2.9 0 0 0-.977.209c-.319.13-.611.318-.862.554-.255.246-.46.54-.603.864a2.8 2.8 0 0 0-.227 1.162"/><path fill="#47C0B5" d="m125.864 1.096-2.602-.509c-1.039-.205-3.284.066-5.131 2.364-.671.84-.81.852-3.006.252a35 35 0 0 0-3.438-.798c-4.888-.85-17.217-.757-22.658.499-2.399.552-3.332-.166-4.631-1.163C83.36.944 82.07-.044 80.053-.044h-3.246l2.218 2.382c.016.018 1.775 1.932 2.22 4.202l-1.748 6.795a18.5 18.5 0 0 0-.605 4.104v1.034c.051 1.386.258 2.762.615 4.103.893 3.465 1.404 5.458 1.784 6.603-.382 2.35-2.24 4.374-2.258 4.392l-2.237 2.385h3.255c2.017 0 3.306-.99 4.345-1.786 1.299-.997 2.234-1.717 4.631-1.163 5.44 1.254 17.772 1.348 22.66.499a35 35 0 0 0 3.436-.798c2.195-.6 2.335-.587 3.006.25 1.847 2.3 4.092 2.57 5.13 2.364l2.58-.51-1.847-1.875a10.7 10.7 0 0 1-1.666-2.412l-.015-.023a2.57 2.57 0 0 1-.396-1.68c.386-1.283 1.232-4.04 1.363-4.47 1.231-3.953 1.266-8.65.078-12.564l-.205-.66c-.659-2.174-1.069-3.522-1.383-4.363a10.4 10.4 0 0 1 2.22-3.79z"/><path fill="#fff" d="M109.996 14.189h-6.86v6.858h6.86zM100.565 14.189h-6.86v6.858h6.86z"/></g><defs><clipPath id="a"><path fill="#fff" d="M0 0h126v36H0z"/></clipPath></defs></svg>
